X: 7789
T: Come In From The Rain
R: slide
M: 12/8
K: Eminor
|:A|B2E EFE B2d A2G|F2D DED F2G A2c|
B2E EFE B2d e2f|g2e fed e3 e2:|
|:f|gfe b2e gfe b2e|f2d A2g f2g agf|
gfe b2e gfe b2e|f2d Bcd e3 e2:|

